X: 169
T:Bath Waltz. JC.168
M:3/8
L:1/8
Q:27
S:John Clare,Poet,Helpstone (1793-1864)
R:Waltz
O:England101
A:Northamptonshire
N:
Z:vmp.P. Headford
K:G
D(BG)|D(BG)|{B}c2A/G/|FA/F/D|DBG|DBG|{B}c2A/F/|G3:|!
|:dd/e/f/g/|d2B|A/G/A/B/c/d/|BGG|dd/e/f/g/|d2B|cAF|G3:|]
